icons/editor/text-align/center.svg

<svg width="32" height="32" viewBox="0 0 32 32" xmlns="http://www.w3.org/2000/svg">
    <path fill-rule="evenodd" d="M6 8h20V6H6v2zm4 6h12v-2H10v2zm16 6H6v-2h20v2zm-16 6h12v-2H10v2z"/>
</svg>

<svg width="32" height="32" viewBox="0 0 32 32" fill="none" xmlns="http://www.w3.org/2000/svg">
<path fill-rule="evenodd" clip-rule="evenodd" d="M6 8H26V6H6V8ZM10 14H22V12H10V14ZM26 20H6V18H26V20ZM10 26H22V24H10V26Z" fill="black"/>
</svg>
